storage/app/icons/phosphoricons/regular/selection-foreground.svg

<svg xmlns="http://www.w3.org/2000/svg" fill="currentColor" viewBox="0 0 256 256"><path d="M64 216a8 8 0 0 1-8 8h-8a16 16 0 0 1-16-16v-8a8 8 0 0 1 16 0v8h8a8 8 0 0 1 8 8m48-8H96a8 8 0 0 0 0 16h16a8 8 0 0 0 0-16m-72-40a8 8 0 0 0 8-8v-16a8 8 0 0 0-16 0v16a8 8 0 0 0 8 8m128 24a8 8 0 0 0-8 8v8h-8a8 8 0 0 0 0 16h8a16 16 0 0 0 16-16v-8a8 8 0 0 0-8-8m0-80a8 8 0 0 0 8-8v-8a16 16 0 0 0-16-16h-8a8 8 0 0 0 0 16h8v8a8 8 0 0 0 8 8M56 80h-8a16 16 0 0 0-16 16v8a8 8 0 0 0 16 0v-8h8a8 8 0 0 0 0-16m152-48H96a16 16 0 0 0-16 16v40a4 4 0 0 0 0 .55A8 8 0 0 0 88 96h24a8 8 0 0 0 0-16H96V48h112v112h-32v-16a8 8 0 0 0-16 0v24a8 8 0 0 0 8 8h40a16 16 0 0 0 16-16V48a16 16 0 0 0-16-16"/></svg>

<svg xmlns="http://www.w3.org/2000/svg" viewBox="0 0 256 256" fill="currentColor"><path d="M64,216a8,8,0,0,1-8,8H48a16,16,0,0,1-16-16v-8a8,8,0,0,1,16,0v8h8A8,8,0,0,1,64,216Zm48-8H96a8,8,0,0,0,0,16h16a8,8,0,0,0,0-16ZM40,168a8,8,0,0,0,8-8V144a8,8,0,0,0-16,0v16A8,8,0,0,0,40,168Zm128,24a8,8,0,0,0-8,8v8h-8a8,8,0,0,0,0,16h8a16,16,0,0,0,16-16v-8A8,8,0,0,0,168,192Zm0-80a8,8,0,0,0,8-8V96a16,16,0,0,0-16-16h-8a8,8,0,0,0,0,16h8v8A8,8,0,0,0,168,112ZM56,80H48A16,16,0,0,0,32,96v8a8,8,0,0,0,16,0V96h8a8,8,0,0,0,0-16ZM208,32H96A16,16,0,0,0,80,48V88a4.44,4.44,0,0,0,0,.55A8,8,0,0,0,88,96h24a8,8,0,0,0,0-16H96V48H208V160H176V144a8,8,0,0,0-16,0v24a8,8,0,0,0,8,8h40a16,16,0,0,0,16-16V48A16,16,0,0,0,208,32Z"/></svg>
